X:1
T:Dewdrops on the Corn

T:Australian Waters
R:jig
Z:Bill Reeder & Roger Landes
M:6/8
L:1/8
K:D
A|d2D FED|=c3 ed^c|d=cA GEA|~D3 efe|d2D FED|=c3 ed^c|d=cA GEA|~D3 D2:||
|: dB/c/d efg|fed =cAG|dB/c/d efg|fed def|gbg afa|e^cA ABc|d^cA GEA|DD/D/D D2 A:||

                       

DEWEY, DEWEY DAY. Old‑Time, Waltz. USA, North Carolina. In the repertoire of Ashe County, N.C. stringband the Carolina Night Hawks in the late 1920's.

 


DEWY MORNING, THE. Irish, Air (3/4 time). F Minor/Dorian. Standard tuning. AB. Stanford (1902) refers the “Molly Asthoreen” as a similar melody. Source for notated version: “Mr. MacDowell” [Stanford/Petrie]. Stanford/Petrie (Complete Collection), 1905; No. 454, pg. 114.

